public/section-bg.svg

<svg width="960px" height="540px" version="1.1" viewBox="0 0 960 540" xmlns="http://www.w3.org/2000/svg" xmlns:xlink="http://www.w3.org/1999/xlink"><defs><path id="c" d="m960 0v540h-960v-540h960z"/><path id="b" d="m960 0v540h-960v-540h960z"/><clipPath id="d"><use clip-rule="evenodd" fill-rule="evenodd" xlink:href="#c"/></clipPath><clipPath id="a"><use clip-rule="evenodd" fill-rule="evenodd" xlink:href="#b"/></clipPath></defs><path id="e" d="m960 0v540h-960v-540h960z" fill="none"/><g clip-path="url(#d)"><path id="f" d="m960 0v540h-960v-540h960z" fill="none"/><g id="g"><path d="m960 0v540h-960v-540h960z" fill="none" fill-rule="evenodd"/><g clip-path="url(#a)"><path id="h" d="m0 0h960v540h-960v-540z" fill="#171717" fill-rule="evenodd"/></g></g><path d="m960 0v540h-960v-540h960z" fill="none" fill-rule="evenodd"/><g clip-path="url(#a)"><path d="m0 0h960v540h-960v-540z" fill="#171717" fill-rule="evenodd"/></g><path d="m960 0v540h-960v-540h960z" fill="none" fill-rule="evenodd"/><g clip-path="url(#a)"><path id="i" d="m0 192 22.8-1c22.9-1 68.5-3 114.2-11s91.3-22 137-27.3c45.7-5.4 91.3-2 137.2-14.2 45.8-12.2 91.8-39.8 137.6-49.8 45.9-10 91.5-2.4 137.2 12.5 45.7 14.8 91.3 36.8 137 32.8s91.3-34 114.2-49l22.8-15v-70h-22.8-114.2-137-137.2-137.6-137.2-137-114.2-22.8v192z" fill="#0E0E0E"/></g><path d="m960 0v540h-960v-540h960z" fill="none" fill-rule="evenodd"/><g clip-path="url(#a)"><path d="m0 192 22.8-1c22.9-1 68.5-3 114.2-11s91.3-22 137-27.3c45.7-5.4 91.3-2 137.2-14.2 45.8-12.2 91.8-39.8 137.6-49.8 45.9-10 91.5-2.4 137.2 12.5 45.7 14.8 91.3 36.8 137 32.8s91.3-34 114.2-49l22.8-15v-70h-22.8-114.2-137-137.2-137.6-137.2-137-114.2-22.8v192z" fill="#0E0E0E"/></g><path d="m960 0v540h-960v-540h960z" fill="none" fill-rule="evenodd"/><g clip-path="url(#a)"><path id="j" d="m960 348-22.8 1c-22.9 1-68.5 3-114.2 11s-91.3 22-137 27.3c-45.7 5.4-91.3 2-137.2 14.2-45.8 12.2-91.8 39.8-137.6 49.8-45.9 10-91.5 2.4-137.2-12.5-45.7-14.8-91.3-36.8-137-32.8-45.7 4-91.3 34-114.2 49l-22.8 15v70h22.8 114.2 137 137.2 137.6 137.2 137 114.2 22.8v-192z" fill="#0E0E0E"/></g><path d="m960 0v540h-960v-540h960z" fill="none" fill-rule="evenodd"/><g clip-path="url(#a)"><path d="m960 348-22.8 1c-22.9 1-68.5 3-114.2 11s-91.3 22-137 27.3c-45.7 5.4-91.3 2-137.2 14.2-45.8 12.2-91.8 39.8-137.6 49.8-45.9 10-91.5 2.4-137.2-12.5-45.7-14.8-91.3-36.8-137-32.8-45.7 4-91.3 34-114.2 49l-22.8 15v70h22.8 114.2 137 137.2 137.6 137.2 137 114.2 22.8v-192z" fill="#0E0E0E"/></g><path d="m960 0v540h-960v-540h960z" fill="none"/><path d="m960 0v540h-960v-540h960z" fill="none" fill-rule="evenodd"/><g clip-path="url(#a)"><path d="m0 0h960v540h-960v-540z" fill="#171717" fill-rule="evenodd"/></g><path d="m960 0v540h-960v-540h960z" fill="none" fill-rule="evenodd"/><g clip-path="url(#a)"><path d="m0 0h960v540h-960v-540z" fill="#171717" fill-rule="evenodd"/></g><path d="m960 0v540h-960v-540h960z" fill="none" fill-rule="evenodd"/><g clip-path="url(#a)"><path d="m0 192 22.8-1c22.9-1 68.5-3 114.2-11s91.3-22 137-27.3c45.7-5.4 91.3-2 137.2-14.2 45.8-12.2 91.8-39.8 137.6-49.8 45.9-10 91.5-2.4 137.2 12.5 45.7 14.8 91.3 36.8 137 32.8s91.3-34 114.2-49l22.8-15v-70h-22.8-114.2-137-137.2-137.6-137.2-137-114.2-22.8v192z" fill="#0E0E0E"/></g><path d="m960 0v540h-960v-540h960z" fill="none" fill-rule="evenodd"/><g clip-path="url(#a)"><path d="m0 192 22.8-1c22.9-1 68.5-3 114.2-11s91.3-22 137-27.3c45.7-5.4 91.3-2 137.2-14.2 45.8-12.2 91.8-39.8 137.6-49.8 45.9-10 91.5-2.4 137.2 12.5 45.7 14.8 91.3 36.8 137 32.8s91.3-34 114.2-49l22.8-15v-70h-22.8-114.2-137-137.2-137.6-137.2-137-114.2-22.8v192z" fill="#0E0E0E"/></g><path d="m960 0v540h-960v-540h960z" fill="none" fill-rule="evenodd"/><g clip-path="url(#a)"><path d="m960 348-22.8 1c-22.9 1-68.5 3-114.2 11s-91.3 22-137 27.3c-45.7 5.4-91.3 2-137.2 14.2-45.8 12.2-91.8 39.8-137.6 49.8-45.9 10-91.5 2.4-137.2-12.5-45.7-14.8-91.3-36.8-137-32.8-45.7 4-91.3 34-114.2 49l-22.8 15v70h22.8 114.2 137 137.2 137.6 137.2 137 114.2 22.8v-192z" fill="#0E0E0E"/></g><path d="m960 0v540h-960v-540h960z" fill="none" fill-rule="evenodd"/><g clip-path="url(#a)"><path d="m960 348-22.8 1c-22.9 1-68.5 3-114.2 11s-91.3 22-137 27.3c-45.7 5.4-91.3 2-137.2 14.2-45.8 12.2-91.8 39.8-137.6 49.8-45.9 10-91.5 2.4-137.2-12.5-45.7-14.8-91.3-36.8-137-32.8-45.7 4-91.3 34-114.2 49l-22.8 15v70h22.8 114.2 137 137.2 137.6 137.2 137 114.2 22.8v-192z" fill="#0E0E0E"/></g></g></svg>

<?xml version="1.0" encoding="utf-8"?>
<svg width="960px" height="540px" viewBox="0 0 960 540" version="1.1" xmlns:xlink="http://www.w3.org/1999/xlink" xmlns="http://www.w3.org/2000/svg">
  <defs>
    <path d="M960 0L960 0L960 540L0 540L0 0L960 0Z" id="path_1" />
    <clipPath id="clip_1">
      <use xlink:href="#path_1" clip-rule="evenodd" fill-rule="evenodd" />
    </clipPath>
  </defs>
  <g id="wave-haikei (1)">
    <path d="M960 0L960 0L960 540L0 540L0 0L960 0Z" id="wave-haikei-(1)" fill="none" stroke="none" />
    <path d="M0 0L960 0L960 540L0 540L0 0Z" id="Rectangle" fill="#171717" fill-rule="evenodd" stroke="none" clip-path="url(#clip_1)" />
    <path d="M0 0L960 0L960 540L0 540L0 0Z" id="Rectangle" fill="#171717" fill-rule="evenodd" stroke="none" clip-path="url(#clip_1)" />
    <path d="M0 192L22.8 191C45.7 190 91.3 188 137 180C182.7 172 228.3 158 274 152.7C319.7 147.3 365.3 150.7 411.2 138.5C457 126.3 503 98.7 548.8 88.7C594.7 78.7 640.3 86.3 686 101.2C731.7 116 777.3 138 823 134C868.7 130 914.3 100 937.2 85L960 70L960 0L937.2 0C914.3 0 868.7 0 823 0C777.3 0 731.7 0 686 0C640.3 0 594.7 0 548.8 0C503 0 457 0 411.2 0C365.3 0 319.7 0 274 0C228.3 0 182.7 0 137 0C91.3 0 45.7 0 22.8 0L0 0L0 192Z" id="Shape" fill="#0e0e0e" stroke="none" clip-path="url(#clip_1)" />
    <path d="M0 192L22.8 191C45.7 190 91.3 188 137 180C182.7 172 228.3 158 274 152.7C319.7 147.3 365.3 150.7 411.2 138.5C457 126.3 503 98.7 548.8 88.7C594.7 78.7 640.3 86.3 686 101.2C731.7 116 777.3 138 823 134C868.7 130 914.3 100 937.2 85L960 70L960 0L937.2 0C914.3 0 868.7 0 823 0C777.3 0 731.7 0 686 0C640.3 0 594.7 0 548.8 0C503 0 457 0 411.2 0C365.3 0 319.7 0 274 0C228.3 0 182.7 0 137 0C91.3 0 45.7 0 22.8 0L0 0L0 192Z" id="Shape" fill="#0e0e0e" stroke="none" clip-path="url(#clip_1)" />
    <path d="M960 348L937.2 349C914.3 350 868.7 352 823 360C777.3 368 731.7 382 686 387.3C640.3 392.7 594.7 389.3 548.8 401.5C503 413.7 457 441.3 411.2 451.3C365.3 461.3 319.7 453.7 274 438.8C228.3 424 182.7 402 137 406C91.2999 410 45.7 440 22.7999 455L0 470L0 540L22.7999 540C45.7 540 91.2999 540 137 540C182.7 540 228.3 540 274 540C319.7 540 365.3 540 411.2 540C457 540 503 540 548.8 540C594.7 540 640.3 540 686 540C731.7 540 777.3 540 823 540C868.7 540 914.3 540 937.2 540L960 540L960 348Z" id="Shape-Copy" fill="#0e0e0e" stroke="none" clip-path="url(#clip_1)" />
    <path d="M960 348L937.2 349C914.3 350 868.7 352 823 360C777.3 368 731.7 382 686 387.3C640.3 392.7 594.7 389.3 548.8 401.5C503 413.7 457 441.3 411.2 451.3C365.3 461.3 319.7 453.7 274 438.8C228.3 424 182.7 402 137 406C91.2999 410 45.7 440 22.7999 455L0 470L0 540L22.7999 540C45.7 540 91.2999 540 137 540C182.7 540 228.3 540 274 540C319.7 540 365.3 540 411.2 540C457 540 503 540 548.8 540C594.7 540 640.3 540 686 540C731.7 540 777.3 540 823 540C868.7 540 914.3 540 937.2 540L960 540L960 348Z" id="Shape-Copy" fill="#0e0e0e" stroke="none" clip-path="url(#clip_1)" />
  </g>
</svg>
